X: 908
T: Soap Suds Over the Fence
B: jims roots
M:2/4
L:1/8
R: reel
Q: 1/4=100
K:D
V:1 
%Q:120
%S:Cyril Stinnett
%H:- see Kerr's Caledonian Collection
%Z:B. Shull, trans.; R.P. LaVaque, ABCs
|: fg | "D"a2fa "G"gfeg | "D"f2 d2 d2fg | a2fa "G"gfga | "A"b2 e2 e2fg |
"D"a2fa gfeg | f2 d2 "G"g3f | gfed "A"cdeg | "D"f2 d2 d2 :|
|: (3ABc | "D"d2AG FGAd | "G"BABc "D"d2 Ac | d2AG FGAF | "A"[EA][DA][EA][FA][E2A2]Ac |
"D"d2AG FGAd | "G"BABc dfef | gfed "A"cdeg | "D"f2 d2 d2 :|
% abcbook-tune_id 6298c287b1559792a230a21c


% abcbook-boost 0
% abcbook-tablature 
% abcbook-transpose 
% abcbook-lastupdated 1654178440632
% abcbook-soundfonts 
% abcbook-repeats 1


